icons/bug-24.svg

<svg width="24" height="24" viewBox="0 0 24 24" fill="none" xmlns="http://www.w3.org/2000/svg">
<path fill-rule="evenodd" clip-rule="evenodd" d="M7.71986 0.21967C8.01276 -0.0732233 8.48763 -0.0732233 8.78052 0.21967L9.984 1.42315C10.6007 1.15108 11.2828 1 12.0002 1C12.7176 1 13.3997 1.15108 14.0164 1.42315L15.2199 0.21967C15.5128 -0.0732233 15.9876 -0.0732233 16.2805 0.21967C16.5734 0.512563 16.5734 0.987437 16.2805 1.28033L15.3093 2.25158C16.3463 3.16772 17.0002 4.50749 17.0002 6L17.0002 7.10352C17.9418 7.36984 18.6781 8.12518 18.9175 9.07784L20.9148 8.07918C21.2853 7.89394 21.7358 8.04411 21.921 8.41459C22.1063 8.78507 21.9561 9.23558 21.5856 9.42082L19.0002 10.7135V13.5011L21.2513 13.5044C21.6655 13.505 22.0008 13.8413 22.0002 14.2555C21.9996 14.6697 21.6633 15.005 21.2491 15.0044L19.0002 15.0011V16C19.0002 16.5812 18.9294 17.1458 18.7959 17.6857C18.8092 17.6915 18.8225 17.6976 18.8356 17.7042L21.5856 19.0792C21.9561 19.2644 22.1063 19.7149 21.921 20.0854C21.7358 20.4559 21.2853 20.6061 20.9148 20.4208L18.2771 19.102C17.1334 21.4118 14.7523 23 12.0002 23C9.3104 23 6.97495 21.4829 5.80284 19.2577L3.04563 20.4394C2.66491 20.6025 2.224 20.4262 2.06083 20.0454C1.89767 19.6647 2.07403 19.2238 2.45475 19.0606L5.25066 17.8624C5.0874 17.2694 5.00019 16.6449 5.00019 16V15.0044H2.75019C2.33598 15.0044 2.00019 14.6686 2.00019 14.2544C2.00019 13.8402 2.33598 13.5044 2.75019 13.5044H5.00019V10.7135L2.41478 9.42082C2.0443 9.23558 1.89413 8.78507 2.07937 8.41459C2.26461 8.04411 2.71512 7.89394 3.0856 8.07918L5.08293 9.07784C5.32224 8.12518 6.05856 7.36984 7.00019 7.10352V6C7.00019 4.50749 7.65413 3.16773 8.69112 2.25159L7.71986 1.28033C7.42697 0.987437 7.42697 0.512563 7.71986 0.21967ZM8.50019 7H15.5002L15.5002 6C15.5002 4.067 13.9332 2.5 12.0002 2.5C10.0672 2.5 8.50019 4.067 8.50019 6V7ZM6.50019 10.2663C6.50041 10.2558 6.50041 10.2453 6.50019 10.2349V9.75C6.50019 9.05964 7.05984 8.5 7.75019 8.5H16.2502C16.9405 8.5 17.5002 9.05964 17.5002 9.75V10.2349C17.5 10.2453 17.5 10.2558 17.5002 10.2662V16C17.5002 19.0376 15.0378 21.5 12.0002 21.5C8.96263 21.5 6.50019 19.0376 6.50019 16V10.2663Z" fill="black"/>
</svg>

<svg xmlns="http://www.w3.org/2000/svg" width="24" height="24" viewBox="0 0 24 24"><path fill-rule="evenodd" d="M7.72.22a.75.75 0 011.06 0l1.204 1.203A4.983 4.983 0 0112 1c.718 0 1.4.151 2.016.423L15.22.22a.75.75 0 111.06 1.06l-.97.972A4.988 4.988 0 0117 6v1.104a2.755 2.755 0 011.918 1.974l1.997-.999a.75.75 0 11.67 1.342L19 10.714V13.5l2.251.003a.75.75 0 01-.002 1.5L19 15.001V16c0 .581-.07 1.146-.204 1.686a.79.79 0 01.04.018l2.75 1.375a.75.75 0 11-.671 1.342l-2.638-1.319A7 7 0 0112 23a7 7 0 01-6.197-3.742l-2.757 1.181a.75.75 0 01-.591-1.378l2.796-1.199A7.007 7.007 0 015 16v-.996H2.75a.75.75 0 010-1.5H5v-2.79L2.414 9.42a.75.75 0 01.67-1.342l1.998.999A2.755 2.755 0 017 7.104V6c0-1.493.654-2.832 1.691-3.748L7.72 1.28a.75.75 0 010-1.06zM8.5 7h7V6a3.5 3.5 0 10-7 0v1zm-2 3.266V9.75c0-.69.56-1.25 1.25-1.25h8.5c.69 0 1.25.56 1.25 1.25V16a5.5 5.5 0 11-11 0v-5.734z"/></svg>
